!!!OTL: Fang fengzheng
!!!ARE: Asia, China,ÿShandong, Dezhou
!! III, 372
!!!SCT: C1572
!!!YEM: Copyright 1995, estate of Helmut Schaffrath.
**kern
*ICvox
*Ivox
*M2/4
*k[f#c#g#]
*A:
{8ee
16ee
16cc#
8ff#
16ee
16cc#
=1
8ee
4b
8cc#
=2
8ee
16ee
16cc#
8ff#
16ee
16cc#
=3
16b
16ee
16cc#
16b
8a
8r}
=4
{8.a
16b
8cc#
8cc#
=5
16.b
32cc#
16b
16a
8a
8a
=6
8e
8f#
8e
8r}
=7
{16a
16f#
16a
16b
8f#
8e
=8
16ee
16b
16cc#
16ee
4b}
=9
{16ee
16b
16cc#
16ee
8b
8a
=10
16f#
16e
16f#
16a
4e}
=11
{8cc#
8ee
16cc#
16b
16a
16f#
=12
16b
16cc#
16a
16b
4cc#}
=13
{8b
16cc#
16ee
8b
8a
=14
16b
16a
16f#
16e
4a}
=15
{16a
16f#
4a
16b
16cc#
=16
4ee
8.cc#
16aa
=17
16b
16cc#
4.b}
=18
{8b
4ee
16cc#
16b
=19
8a
8b
4a}
=20
{8b
8ee
8b
8ee
=21
16cc#
16b
16a
16b
8f#
8e}
=22
{8.ee
16cc#
8b
[8ee
=23
8ee]
16cc#
16b
4a
=24
4ee
8b
16a
16f#
=25
4e}
{8.ee
16ff#
=26
8ee
8cc#
16b
8cc#
16b
=27
16a
16f#
4a}
{8b
=28
8a
16a
16b
8cc#
8ee
=29
16b
16a
8f#
8r
8a
=30
8c#
8e
8f#}
{8b
=31
8.a
16b
8ee
8cc#
=32
8cc#
8b
8r
16cc#
16b
=33
8a
8g#
8b
8f#
=34
8a
4.e}
=35
{8ee
8ee
8ee
16b
16a
=36
8g#
8f#
8e
8r}
=37
{8r
8a
8c#
16e
16e
=38
16a
16b
16cc#
16b
4a}
=39
{8f#
8b
8g#
8f#
=40
8cc#
16b
16a
8g#
8f#}
=41
{8r
8a
8c#
8e
=42
8f#
8b
8g#
8f#
=43
2e}
==
!!!AGN: Xiaodiao
!!!AMT: simple duple
!!!AIN: vox
!!!EED: Helmut Schaffrath
!!!EEV: 1.0
*-
!!!ONB: Tied note syntax fixed by Craig Sapp, 2004/05/03/
